X: 1728
T: Seni Ne Çok Sevdiğimi...
C: Erol Sayan
O: Turkey
F: http://compmusic.upf.edu/node/140
N: beyati--sarki--duyek--seni_ne_cok--erol_sayan
N: makam= beyati
N: form= sarki
N: usul= duyek = 8/4
M: 8/4
L: 1/16
K: C _2/4B   
Q: 1/4=120
%%MIDI tuningsystem comma53
z2 G2 A2 A2 a8  | gf ed ed cB c6 B/A/B  | \
w:  Se ni  ne  çok   |  sev *  *  *  di *  ği *  mi   | 
z2 c4 d2 e2 g2 fe de  | 
w:  söy le sem  *  de   | 
d4 c2 d2 cB A2 ^3/4f4  | ^3/4f4 g4 f_7/8e dc d4  | \
w:  *  bi le mez *  *  sin  |   | 
e2 fe d2 ed d8  | 
w:  bi le *  mez *  *  sin  | 
zf2e fe fg a4 f4  | ze2d ed ef g4 e4  | \
w:  SAZ  |   | 
zd2c dc de fe de dc Bd  | 
w:   | 
cB A4 Bc ed cB A4  | z2 G2 A2 A2 a8  | \
w:   |  Se ni  ne  çok   | 
gf ed ed cB c6 B/A/B  | 
w:  sev *  *  *  di *  ği *  mi   | 
z2 c4 d2 e2 g2 fe de  | d4 c2 d2 cB A2 ^3/4f4  | \
w:  söy le sem  *  de   |  *  bi le mez *  *  sin  | 
^3/4f4 g4 f_7/8e dc d4  | 
w:   | 
e2 fe d2 ed d8  | zf2e fe fg a4 f4  | \
w:  bi le *  mez *  *  sin  |  SAZ  | 
ze2d ed ef g4 e4  | 
w:   | 
zd2c dc de fe de dc Bd  | cB A4 Bc dc de f4  | 
w:   |   | 
z2 e4 a2 gf2g a4  | g2 f2 e2 a2 gf ed e4  | \
w:  Hâ tı ram *  *  dan   |  ha ya *  li ni  | 
z2 f2 e2 d2 ed c2 d2 cB  | 
w:  is *  te sen  *  *  de   | 
cB A2 d2 c2 B2 AG ^F4  | G4 d4 cB AG A4  | \
w:  *  *  *  si le mez *  *  sin   |   | 
d2 dc B2 BA A8  | 
w:  si le *  mez *  *  sin   | 
zf2e fe fg a4 f4  | ze2d ed ef g4 e4  | \
w:  SAZ  |   | 
zd2c dc de fe de dc Bd  | 
w:   | 
cB A4 Bc dc de f4  | z2 e4 a2 gf2g a4  | \
w:   |  Hâ tı ram *  *  dan   | 
g2 f2 e2 a2 gf ed e4  | 
w:  ha ya *  li ni  | 
z2 f2 e2 d2 ed c2 d2 cB  | cB A2 d2 c2 B2 AG ^F4  | \
w:  is *  te sen  *  *  de   |  *  *  *  si le mez *  *  sin   | 
G4 d4 cB AG A4  | 
w:   | 
d2 dc B2 BA A8  | zf2e fe fg a4 f4  | \
w:  si le *  mez *  *  sin   |  SAZ  | 
ze2d ed ef g4 e4  | 
w:   | 
zd2c dc de fe de dc Bd  | cB A4 Bc de ^3/4fg a4  | 
w:   |   | 
z2 g2 ^3/4f2 g2 c'2 c'2 b2 a2  | g4 ^3/4f4 g6 a2  | \
w:  Öy *  le  de rin   |  nak şet miş  ki   | 
d2 d4 a2 g2 fe f4  | e2 e4 d2 ed c2 ^3/4f4  | 
w:  fe lek  se ni   |  şu  gön lü me   | 
^3/4f4 g4 =f_7/8e dc d4  | z2 c4 Bd d8  | \
w:   |  gön lü *  me   | 
zf2e fe fg a4 f4  | 
w:  SAZ  | 
ze2d ed ef g4 e4  | zd2c dc de fe de dc Bd  | 
w:   |   | 
cB A4 Bc de ^3/4fg a4  | z2 g2 ^3/4f2 g2 c'2 c'2 b2 a2  | \
w:   |  Öy *  le  de rin   | 
g4 ^3/4f4 g6 a2  | 
w:  nak şet miş  ki   | 
d2 d4 a2 g2 fe f4  | e2 e4 d2 ed c2 ^3/4f4  | \
w:  fe lek  se ni   |  şu  gön lü me   | 
^3/4f4 g4 =f_7/8e dc d4  | 
w:   | 
z2 c4 Bd d8  | zf2e fe fg a4 f4  | ze2d ed ef g4 e4  | 
w:  gön lü *  me   |  SAZ  |   | 
zd2c dc de fe de dc Bd  | cB A4 Bc dc de f4  | 
w:   |   | 
z2 e4 a2 gf2g a4  | g2 f2 e2 a2 gf ed e4  | \
w:  Hâ tı ram *  *  dan   |  ha ya *  li ni  | 
z2 f2 e2 d2 ed c2 d2 cB  | 
w:  is *  te sen  *  *  de   | 
cB A2 d2 c2 B2 AG ^F4  | G4 d4 cB AG A4  | \
w:  *  *  *  si le mez *  *  sin   |   | 
d2 dc B2 BA A8  | 
w:  si le *  mez *  *  sin   | 
|


